X: 58
T:Goodnight And Joy Be With You
M:6/8
L:1/8
K:C
c2 A c2 A|c2 d ecA| c2 A c2 A| Bdg dBG| c2 A c2 A c2| d e2 f gag edc| Bd g dBG:|
|: c'gf ede c2 decA|c'gf edc| Bdg dBG|c'gf ede|c2 d e2 f| gag edc| Bdg dBG :|

